icons/glyphs/glyph-calendar.svg

<?xml version="1.0" encoding="UTF-8" standalone="no"?><svg height="16" viewBox="0 0 4.2333332 4.2333332" width="16" xmlns="http://www.w3.org/2000/svg"><sodipodi:namedview/><metadata><rdf:RDF><cc:Work><dc:format>image/svg+xml</dc:format><dc:type/><dc:title/></cc:Work></rdf:RDF></metadata><path d="m .21152883 0c-.11726334 0-.21152887.0942655-.21152887.21152885v3.81027565c0 .117264.0942663.2115287.21152887.2115287h3.80958647c.117264 0 .2122179-.094264.2122179-.2115287v-3.81027565c0-.11726333-.094955-.21152885-.2122179-.21152885h-.5353678v.4189236h-.4147895v-.4189236h-.7475857v.4189236h-.4141004v-.4189236h-.7475857v.4189236h-.41478957v-.4189236z" fill="#d0d0d0"/></svg>

<?xml version="1.0" encoding="UTF-8" standalone="no"?>
<!-- Created with Inkscape (http://www.inkscape.org/) -->

<svg
   xmlns:dc="http://purl.org/dc/elements/1.1/"
   xmlns:cc="http://creativecommons.org/ns#"
   xmlns:rdf="http://www.w3.org/1999/02/22-rdf-syntax-ns#"
   xmlns:svg="http://www.w3.org/2000/svg"
   xmlns="http://www.w3.org/2000/svg"
   xmlns:sodipodi="http://sodipodi.sourceforge.net/DTD/sodipodi-0.dtd"
   xmlns:inkscape="http://www.inkscape.org/namespaces/inkscape"
   width="16"
   height="16"
   viewBox="0 0 4.2333332 4.2333332"
   version="1.1"
   id="svg8"
   inkscape:version="0.92+devel (7f3bd2b258, 2017-08-07, custom)"
   sodipodi:docname="glyph-calendar.svg">
  <defs
     id="defs2" />
  <sodipodi:namedview
     id="base"
     pagecolor="#002466"
     bordercolor="#ffffff"
     borderopacity="0.38039216"
     inkscape:pageopacity="1"
     inkscape:pageshadow="2"
     inkscape:zoom="25.25"
     inkscape:cx="7.970297"
     inkscape:cy="8"
     inkscape:document-units="px"
     inkscape:current-layer="svg8"
     inkscape:document-rotation="0"
     showgrid="false"
     inkscape:showpageshadow="false"
     borderlayer="true"
     inkscape:window-width="1920"
     inkscape:window-height="1027"
     inkscape:window-x="0"
     inkscape:window-y="24"
     inkscape:window-maximized="1"
     units="px" />
  <metadata
     id="metadata5">
    <rdf:RDF>
      <cc:Work
         rdf:about="">
        <dc:format>image/svg+xml</dc:format>
        <dc:type
           rdf:resource="http://purl.org/dc/dcmitype/StillImage" />
        <dc:title></dc:title>
      </cc:Work>
    </rdf:RDF>
  </metadata>
  <path
     style="font-variation-settings:normal;vector-effect:none;fill:#d0d0d0;stroke:none;stroke-width:0.39687499;stroke-linecap:round;stroke-miterlimit:26.70000076"
     d="M 0.21152883,0 C 0.09426549,0 -3.5e-8,0.0942655 -3.5e-8,0.21152885 V 4.0218045 c 0,0.117264 0.094266295,0.2115287 0.211528865,0.2115287 H 4.0211153 c 0.117264,0 0.2122179,-0.094264 0.2122179,-0.2115287 V 0.21152885 C 4.2333332,0.09426552 4.1383782,0 4.0211153,0 H 3.4857475 V 0.4189236 H 3.070958 V 0 H 2.3233723 V 0.4189236 H 1.9092719 V 0 H 1.1616862 V 0.4189236 H 0.74689663 V 0 Z"
     id="rect811-3"
     inkscape:connector-curvature="0"
     inkscape:label="#" />
</svg>
